ix/archive-add_twotone.svg

<svg viewBox="0 0 24 24" fill="none" xmlns="http://www.w3.org/2000/svg" height="1em" width="1em">
  <g opacity="0.4">
    <path d="M14.5 10.6504H9.5" stroke="#292D32" stroke-width="1.5" stroke-miterlimit="10" stroke-linecap="round" stroke-linejoin="round"/>
    <path d="M12 8.20996V13.21" stroke="#292D32" stroke-width="1.5" stroke-miterlimit="10" stroke-linecap="round" stroke-linejoin="round"/>
  </g>
  <path d="M16.8203 2H7.18031C5.05031 2 3.32031 3.74 3.32031 5.86V19.95C3.32031 21.75 4.61031 22.51 6.19031 21.64L11.0703 18.93C11.5903 18.64 12.4303 18.64 12.9403 18.93L17.8203 21.64C19.4003 22.52 20.6903 21.76 20.6903 19.95V5.86C20.6803 3.74 18.9503 2 16.8203 2Z" stroke="#292D32" stroke-width="1.5" stroke-linecap="round" stroke-linejoin="round"/>
</svg>

<svg viewBox="0 0 24 24" fill="none" xmlns="http://www.w3.org/2000/svg" height="1em" width="1em">
  <path d="M14.5 10.65h-5M12 8.21v5" opacity=".4" stroke="#292D32" stroke-width="1.5" stroke-miterlimit="10" stroke-linecap="round" stroke-linejoin="round"/>
  <path d="M16.82 2H7.18C5.05 2 3.32 3.74 3.32 5.86v14.09c0 1.8 1.29 2.56 2.87 1.69l4.88-2.71c.52-.29 1.36-.29 1.87 0l4.88 2.71c1.58.88 2.87.12 2.87-1.69V5.86C20.68 3.74 18.95 2 16.82 2Z" stroke="#292D32" stroke-width="1.5" stroke-linecap="round" stroke-linejoin="round"/>
</svg>
